src/pos-icons/cellphone-key.svg

<svg height="24" viewBox="0 0 24 24" width="24" xmlns="http://www.w3.org/2000/svg"><path d="m7 1a2 2 0 0 0 -2 2v4h2v-3h10v16h-10v-3h-2v4a2 2 0 0 0 2 2h10a2 2 0 0 0 2-2v-18a2 2 0 0 0 -2-2zm-1 8a3 3 0 0 0 -3 3 3 3 0 0 0 3 3c1.31 0 2.42-.83 2.83-2h2.17v2h2v-2h1v-2h-5.17c-.41-1.17-1.52-2-2.83-2m0 2a1 1 0 0 1 1 1 1 1 0 0 1 -1 1 1 1 0 0 1 -1-1 1 1 0 0 1 1-1z"/></svg>

<?xml version="1.0" encoding="UTF-8"?><!DOCTYPE svg PUBLIC "-//W3C//DTD SVG 1.1//EN" "http://www.w3.org/Graphics/SVG/1.1/DTD/svg11.dtd"><svg xmlns="http://www.w3.org/2000/svg" xmlns:xlink="http://www.w3.org/1999/xlink" version="1.1" id="mdi-cellphone-key" width="24" height="24" viewBox="0 0 24 24"><path d="M7,1A2,2 0 0,0 5,3V7H7V4H17V20H7V17H5V21A2,2 0 0,0 7,23H17A2,2 0 0,0 19,21V3A2,2 0 0,0 17,1H7M6,9A3,3 0 0,0 3,12A3,3 0 0,0 6,15C7.31,15 8.42,14.17 8.83,13H11V15H13V13H14V11H8.83C8.42,9.83 7.31,9 6,9M6,11A1,1 0 0,1 7,12A1,1 0 0,1 6,13A1,1 0 0,1 5,12A1,1 0 0,1 6,11Z" /></svg>
